!!!COM: Gabriel Faure/
!!!CNT: Francais
!!!TXO: Francais
!!!OTL: "La fee/ aux chansons"
!!!LYR: Silvestre
!!!OPR: 
!!!OPS: Op. 27
!!!ONM: No. 2
!!!ENC: Emily Thomas
!!!YOR: CD Sheet Music French Art Songs, The Ultimate Collection
!!!YOR: CD Sheet Music, LLC 2003
!!!ODT: 1882/
!!NB: Vocal melody and text encoded.
**kern	**silbe
=1	=1
*clefG2	*
*k[f#c#]	*
*M2/4	*
2r	.
=2	=2
2r	.
=3	=3
2r	.
=4	=4
2r	.
=5	=5
4r	.
{8a	{Il
8a	e/-
=6	=6
4dd	-tait
8cc#	u-
8cc#	-ne
=7	=7
8b	Fe/-
8b	-e
8cc#	D'her-
8cc#	-be
=8	=8
4f#	fol-
8g#	-le
8g#	coif-
=9	=9
8a	-fe/-
8a}	-e,}
{8b	{Qui
8b	cou-
=10	=10
4d	-rait
8e	les
8e	buis-
=11	=11
[2f#	-sons
=12	=12
4f#]}	|}
4r	.
=13	=13
4r	.
{4b	{Sans
=14	=14
8a	s'y
8a	lais-
8g	-ser
8g	sur-
=15	=15
[2f#	-pren-
=16	=16
4f#]	|
8f#}	-dre}
8r	.
=17	=17
4r	.
{8b	{En
8b	A-
=18	=18
4a	-vril,
8g	pour
8g	ap-
=19	=19
4f#	-prendre
8f#	Aux
8a	oi-
=20	=20
4a	-seaux
8g#	leurs
8e	chan-
=21	=21
[2a	-sons.
=22	=22
4a_	|
8a]}	|}
8r	.
=23	=23
2r	.
=24	=24
4r	.
{8a	{Lors-
8a	-que
=25	=25
4dd	geais
8ccn	et
8ccn	li-
=26	=26
4b-	-not-
8ccn	-tes
8ccn	Fai-
=27	=27
8fn	-saient
8fn	des
8g	faus-
8g	-ses
=28	=28
4a	no-
8b-}	-tes}
{8b-	{En
=29	=29
8d	re/-
8d	-oi-
8en	-tant
8en	leurs
=30	=30
[2fn	-tan-
=31	=31
4fn]	|
8fn}	-ce,}
8r	.
=32	=32
4r	.
{8b-	{Gour-
8b-	-man-
=33	=33
4a-	-dait
8g-	d'im-
8g-	-por-
=34	=34
8fn	-tan-
8fn}	-ce}
{8d	{Ces
8e	e/-
=35	=35
4fn	-le\-
8g	-ves
8fn	me/-
=36	=36
[2e	-chants
=37	=37
4e]}	|}
4r	.
=38	=38
4r	.
{8f#	{Sa
8f#	pe-
=39	=39
4g	-ti-
8a	-te
8a	main
=40	=40
2b	nu-
=41	=41
[4f#	-e,
8f#]}	|}
8r	.
=42	=42
4r	.
{8f#	{D'un
8f#	brin
=43	=43
4g	d'her-
8a	-be
8a	me-
=44	=44
2b	-nu-
=45	=45
[4f#	-e|
8f#]}	|}
8r	.
=46	=46
{4b	{Cueil-
4g	-li
=47	=47
4e	dans
8d	les
8e	hal-
=48	=48
[2f#	-liers,
=49	=49
8f#]}	|}
8r	.
{4f#	{Pour
=50	=50
8b	sti-
8b	-mu-
8a#	-ler
8a#	leurs
=51	=51
4f#	ze\
4g#}	-les,}
=52	=52
{8a	{Fou-
8a	-et
4g#	-tait
=53	=53
8e	sure
8e	leurs
8f#	ai-
8f#	-les
=54	=54
8g	Ces
8f#	mau-
[4f#	-vais
=55	=55
4f#]	|
8e	e/-
8d	-co-
=56	=56
[2a	-liers
=57	=57
4a_	|
8a]}	|}
8r	.
=58	=58
2r	.
=59	=59
2r	.
=60	=60
2r	.
=61	=61
2r	.
=62	=62
{4f#	{Par
8g	un
8a	ma-
=63	=63
4.a	-tin
8f#	d'au-
=64	=64
2e	-tom-
=65	=65
4e	-ne,
8d	El-
8e	-le
=66	=66
4f#	vient
8g	et
8a	s'e/-
=67	=67
4f#	-ton-
4f#}	-ne,}
=68	=68
4r	.
{4e	{De
=69	=69
8e	voir
8f#	les
8d	bois
8e	de/-
=70	=70
[2f#	-serts:
=71	=71
4f#_	|
8f#]}	|}
8r	.
=72	=72
2r	.
=73	=73
2r	.
=74	=74
4r	.
{4g	{A-
=75	=75
8a	-vec
8a	les
8b	hi-
8b	-ron-
=76	=76
2ccn	-del-
=77	=77
[4e	-les
8e]}	|}
8r	.
=78	=78
4r	.
{8g	Ses
8g	a-
=79	=79
4a	-mis
8b	in-
8b	-ti-
=80	=80
2cc#	-de\-
=81	=81
2a}	-les}
=82	=82
2r	.
=83	=83
{4b	{A-
4dd	-vaient
=84	=84
4cc#	fui
4a	|
=85	=85
4b	dans
4f#	les
=86	=86
[2a	aira.
=87	=87
4a_	|
8a]}	|}
8r	.
=88	=88
2r	.
=89	=89
{4b	{Et
8cc#	tout
8a	l'hi-
=90	=90
4.dd	-ver
8cc#	la
=91	=91
8b	Fe/-
8b}	-e,}
{8cc#	{D'her-
8cc#	-be
=92	=92
4f#	mor-
8g	-te
8g	coif-
=93	=93
4a	-fe/e,
8b	Et
8b	comp-
=94	=94
4d	-tant
8e	les
8e	ins-
=95	=95
2f#}	-tants}
=96	=96
2r	.
=97	=97
{4f#	{Sous
8g	les
8a	fo-
=98	=98
4.a	-re^ts
8e	im-
=99	=99
2a	-men-
=100	=100
[4a	-ses,
8a]}	|}
8r	.
=101	=101
4r	.
{4g	{Com-
=102	=102
8a	-po-
8g	-se
8f#	des
8e	ro-
=103	=103
2ccn	-man-
=104	=104
[4ccn	-ces
8ccn]}	|}
8r	.
=105	=105
{4a	{Pour
8b	le
8cc#	pro-
=106	=106
4.cc#	-chain
8a	Prin-
=107	=107
[2dd	-temps!
=108	=108
2dd_	|
=109	=109
4dd_	|
8dd]}	|}
8r	.
==	==
*-	*-
